X: 81
M:6/8
L:1/8
K:D
vBAF "4"ADD|FDD "4"ADD|BAF "4"ADD |FEE EFG|
vdfe (d2B)|ABA AFA|dfe (d2e)|gfe fdA|
dfe dBA|ABF GBd|fed cdB|"4"AFE EF"4"A:|


